X: 22763
T: Landslide, The
R: jig
M: 6/8
K: Gmajor
c{d}cA GED|EAG E{G}E{D}E|DEG Adc|Aba ged|
c{d}cA GED|DAG E{G}E{D}E|Adc Aba|ged c{d}c{G}A:|
G{B}G{F}G GED|CEG c{d}c{A}c|D=FA d{=f}d{c}d|Bdg dBG|
A=FD GEC|DB,G, A,B,C|DEF GFG|AGA BAB:|

